X: 24
T:Garmgny
M:2/4
L:1/16
C:Stefan Brisland-Ferner
S:Garmarna
K:C
|:D3d c2B2|A2F2 F2A2|ABAF B2A2|D3d c2B2|A2F2 F2A2|ABAG F2D2|E2C2 D4|D8:|
:A3d e2d2|B4 B2Bc|A2A2 _B2A2|A3d e2d2|B4 B2Bc|A2A2 _B2A2|D3.G F2E2|D3G F
2E2|
D2E^F G2EG|F2D2|D3.G F2E2|D3G F2E2|D2E^F G2EG|F2DF EDC2|D4D4:|
